X:1
T:Porgetemi la lira
T:Lodovico Agostini
T:Porgetemi la lira
T:Canzone Prima parte
C:Lodovico Agostini
%%score [ 1 2 3 4 ]
L:1/8
Q:1/4=56
M:4/4
K:C
V:1 treble nm="Soprano" snm="S"
V:2 alto1 nm="Alto" snm="A"
V:3 alto nm="Tenor" snm="T"
V:4 bass3 nm="Bass" snm="B"
V:1
 z8 |[K:Bb] F4 B3 B | A2 d2 c4 | B2 B2 c3 B | A2 A2 B4 | A2 c2 d2 d2 | c4 d4 | z2 c2 c4 | %8
w: |Por- ge- te-|mi la li-|ra, Por- ge- te-|mi la li-|ra, Va- ghi fan-|ciul- li|et su-|
 d2 d4 e2 | c4 c4 | B4 c2 c2 | B2 A2 G4 | G2 c4 A2 | A4 z2 B2 | B2 c2 d2 B2 | c3 d e4 | c2 c4 A2 | %17
w: per que- ste|spon- de,|O- ve so-|a- ve spi-|ra Ze- phi-|ro et|mo- ve fior, et|mo- ve fior|her- bet- te e|
 B4 A2 A2 | B2 F2 c4 | d4 z2 d2 | d3 =B c2 d2 | e4 d4 | z4 B4 | c6 c2 | B2 B2 B4 | %25
w: fron- de, her-|bet- te e fron-|de. E|tre- mo- lar fa|l'on- de,|Del|Tar- ro in-|ar- gen- ta-|
[M:3/4][Q:1/4=84] B6 | A2 G2 A2- | AA B2 c2- | c2 B2 B2- | BB A2 G/F/G/A/ | B4 A2 | G2 GG A>B | %32
w: te,|Can- tiam que-|* sto bel gior-|* no, Che|_ co- sì lie- * * *|* to e a-|dor- no Ci me- na'l|
 cG B B2 B | B B3/2A/4G/4A B2 | z B Bc dc | =B2 c2 c2- | cc e2 dc | B2 c f2 d | c2 d2 z B | %39
w: sol con le chio- me in-|do- ra- * * * te,|Che da che al- lu- ma il|mon- do Non|_ a- per- se gia-|mai il piu gio-|con- do, Che|
 Bc dc =B2 | c2 c3 c | e2 dc B2 | c f2 d c2 | d6 |] %44
w: da che al- lu- ma il mon-|do Non a-|per- se gia- mai|il piu gio- con-|do.|
V:2
 z8 |[K:Bb][K:treble] z8 | z2 B,2 F3 F | D2 G2 F4 | F2 F2 F2 D2 | F4 F4 | z2 F2 B4- | B2 A2 G2 A2 | %8
w: ||Por- ge- te-|mi la li-|ra, Va- ghi fan-|ciul- li|et su-|* per que- ste|
 B8 | A4 G4- | G2 G2 _A2 G2- | G2 F2 D4 | =E4 F4- | F2 F2 D2 F2 | G2 A2 B2 G2 | _A6 G2 | F4 z4 | %17
w: spon-|de, O-|* ve so- a-|* ve spi-|ra Ze-|* phi- ro et|mo- ve fior, et|mo- ve|fior|
 z4 F4 | E2 D2 F4 | F4 z2 F2 | B3 G A2 B2 | B2 A2 B4- | B4 G4 | _A6 A2 | G2 G2 F4 |[M:3/4] G6 | %26
w: her-|bet- te e fron-|de. E|tre- mo- lar fa|l'on- * de,|_ Del|Tar- ro in-|ar- gen- ta-|te,|
 F2 =E2 F2- | FF G2 _A2- | A2 G2 F2- | FF F2 ED | G2 F2 F2 | D2 =E2 F2 | GE F2 G2- | GG F2 F2 | %34
w: Can- tiam que-|* sto bel gior-|* no, Che|_ co- sì lie- to e a-|dor- no Ci|me- na'l sol|con le chio- me in-|* do- ra- te,|
 z F GA BA | G2 G2 A2- | AA B2 BG | GG A2 FB- | B/A/4G/4A B2 z F | GA BA G2 | G2 A3 A | B2 BG GG | %42
w: Che da che al- lu- ma il|mon- do Non|_ a- per- se gia-|mai il piu gio- con-|* * * * do, Che|da che al- lu- ma il mon-|do Non a-|per- se gia- mai il|
 A2 F B3/2A/4G/4A | B6 |] %44
w: piu gio- con- * * *|do.|
V:3
 z8 |[K:Bb][K:treble-8] z8 | z4 F4 | B3 B A2 d2 | c4 B2 B2 | c2 A2 B4 | F4 z2 f2 | f3 f =e2 f2 | %8
w: ||Por-|ge- te- mi la|li- ra, Va-|ghi fan- ciul-|li et|su- per que- ste|
 d4 d2 g2- | gffe/d/ e4 | d4 f2 e2- | ed c3 B/A/ B2 | c2 c4 c2 | c4 z2 B2 | e2 c2 B2 e2 | %15
w: spon- de, O-||ve so- a-|* ve spi- * * *|ra Ze- phi-|ro et|mo- ve fior, et|
 e2 f2 B4 | z4 f4 | e2 d2 c4 | B2 B2 B2 A2 | BABc d4 | G4 z4 | z4 B4 | e8 | c4 f4 | d2 e4 d2 | %25
w: mo- ve fior|her-|bet- te e fron-|de, her- bet- te e|fron- * * * *|de.|Del|Tar-|ro in- ar-|gen- ta- *|
[M:3/4] e6 | c2 c2 c2- | cc e2 e2- | e2 e2 d2- | dd c2 B2 | e2 d2 cc- | c B2 B cd | e e>dd/c/ e2 | %33
w: te,|Can- tiam que-|* sto bel gior-|* no, Che|_ co- sì lie-|to e a- dor- no Ci|_ me- na'l sol con|le chio- * * * *|
 ee c2 B2 | z d df ff | d2 =e2 f2- | ff g2 fe | d2 f c2 f | f2 f2 z d | df ff d2 | =e2 f3 f | %41
w: me in- do- ra- te,|Che da che al- lu- ma il|mon- do Non|_ a- per- se gia-|mai il piu gio-|con- do, Che|da che al- lu- ma il mon-|do Non a-|
 g2 fe d2 | f c2 f f2 | f6 |] %44
w: per- se gia- mai|il piu gio- con-|do.|
V:4
 z8 |[K:Bb][K:bass] z8 | z8 | z4 z2 B,,2 | F,3 F, D,2 G,2 | F,4 B,,2 B,2 | C2 A,2 B,4 | %7
w: |||Por-|ge- te- mi la|li- ra, Va-|ghi fan- ciul-|
 F,4 z2 F,2 | B,3 A, G,2 E,2 | F,4 C,4 | G,4 F,2 C,2 | E,2 F,2 G,4 | C,4 F,4- | F,2 F,2 B,,4 | %14
w: li et|su- per que- ste|spon- de,|O- ve so-|a- ve spi-|ra Ze-|* phi- ro|
 z4 z2 E,2 | _A,2 F,2 E,4 | z8 | z4 F,4 | G,2 B,2 F,4 | B,,8 | z8 | z8 | z4 E,4 | _A,6 F,2 | %24
w: et|mo- ve fior||her-|bet- te e fron-|de.|||Del|Tar- ro in-|
 G,2 E,2 B,4 |[M:3/4] E,6 | F,2 C,2 F,2- | F,F, E,2 _A,2- | A,2 E,2 B,2- | B,B, F,2 G,2- | %30
w: ar- gen- ta-|te,|Can- tiam que-|* sto bel gior-|* no, Che|_ co- sì lie-|
 G,A, B,2 F,2 | G, G,2 G, F,2 | C,2 B,,2 E,2 | E,E, F,2 B,,2 | z B, G,F, B,,F, | G,2 C,2 F,2- | %36
w: * to e a- dor- no|Ci me- na'l sol|con le chio-|me in- do- ra- te,|Che da che al- lu- ma il|mon- do Non|
 F,F, E,2 B,,C, | G,2 F,2 A,B, | F,2 B,,2 z B, | G,F, B,,F, G,2 | C,2 F,3 F, | E,2 B,,C, G,2 | %42
w: _ a- per- se gia-|mai il piu gio-|con- do, Che|da che al- lu- ma il mon-|do Non a-|per- se gia- mai|
 F,2 A,B, F,2 | B,,6 |] %44
w: il piu gio- con-|do.|

